azure-icons/Recovery-Services-Vaults.svg

<svg xmlns="http://www.w3.org/2000/svg" viewBox="0 0 18 18"><defs><linearGradient id="a" x1="11.13" y1="10.95" x2="11.13" y2="1.21" gradientUnits="userSpaceOnUse"><stop offset="0" stop-color="#0078d4"/><stop offset=".16" stop-color="#1380da"/><stop offset=".53" stop-color="#3c91e5"/><stop offset=".82" stop-color="#559cec"/><stop offset="1" stop-color="#5ea0ef"/></linearGradient><linearGradient id="b" x1="7.06" y1="16.79" x2="7.06" y2="6.78" gradientUnits="userSpaceOnUse"><stop offset="0" stop-color="#198ab3"/><stop offset=".13" stop-color="#21a0c7"/><stop offset=".31" stop-color="#28b7db"/><stop offset=".5" stop-color="#2ec7ea"/><stop offset=".72" stop-color="#31d1f2"/><stop offset="1" stop-color="#32d4f5"/></linearGradient></defs><path d="M18 7.9a3.09 3.09 0 00-2.68-3 3.89 3.89 0 00-4-3.72A4 4 0 007.5 3.81a3.68 3.68 0 00-3.24 3.55A3.74 3.74 0 008.13 11h6.77A3.13 3.13 0 0018 7.9z" fill="url(#a)"/><path d="M14.39 5.22l-1.83-1.78c-.2-.2-.37-.13-.37.18v.8a.22.22 0 01-.23.22c-1.18 0-4.47.31-4.59 4.81a.23.23 0 00.23.23h1.17A.23.23 0 009 9.43a2.76 2.76 0 013-3.33.23.23 0 01.23.23v.74c0 .37.12.43.37.18l1.79-1.65a.23.23 0 000-.38z" fill="#fff"/><path d="M14.12 13.66a3.17 3.17 0 00-2.75-3.05 4 4 0 00-4.12-3.83 4.1 4.1 0 00-3.92 2.68A3.78 3.78 0 000 13.1a3.84 3.84 0 004 3.69h6.78a.47.47 0 00.17 0 3.21 3.21 0 003.17-3.13z" fill="url(#b)"/></svg>

<svg id="b4d0e6e2-12c1-4275-b717-890060dd1560" xmlns="http://www.w3.org/2000/svg" width="18" height="18" viewBox="0 0 18 18"><defs><linearGradient id="f1a30f9e-7f48-44e2-9483-6a6db8928977" x1="11.13" y1="10.95" x2="11.13" y2="1.21" gradientUnits="userSpaceOnUse"><stop offset="0" stop-color="#0078d4" /><stop offset="0.16" stop-color="#1380da" /><stop offset="0.53" stop-color="#3c91e5" /><stop offset="0.82" stop-color="#559cec" /><stop offset="1" stop-color="#5ea0ef" /></linearGradient><linearGradient id="b4a5ed8d-a28d-4d26-9aad-a57e6ad0c0b9" x1="7.06" y1="16.79" x2="7.06" y2="6.78" gradientUnits="userSpaceOnUse"><stop offset="0" stop-color="#198ab3" /><stop offset="0.13" stop-color="#21a0c7" /><stop offset="0.31" stop-color="#28b7db" /><stop offset="0.5" stop-color="#2ec7ea" /><stop offset="0.72" stop-color="#31d1f2" /><stop offset="1" stop-color="#32d4f5" /></linearGradient></defs><title>Icon-manage-315</title><path d="M18,7.9a3.09,3.09,0,0,0-2.68-3,3.89,3.89,0,0,0-4-3.72A4,4,0,0,0,7.5,3.81,3.68,3.68,0,0,0,4.26,7.36,3.74,3.74,0,0,0,8.13,11l.34,0h6.26l.17,0A3.13,3.13,0,0,0,18,7.9Z" fill="url(#f1a30f9e-7f48-44e2-9483-6a6db8928977)" /><path d="M14.39,5.22,12.56,3.44c-.2-.2-.37-.13-.37.18v.8a.22.22,0,0,1-.23.22c-1.18,0-4.47.31-4.59,4.81a.23.23,0,0,0,.23.23H8.77A.23.23,0,0,0,9,9.43,2.76,2.76,0,0,1,12,6.1a.23.23,0,0,1,.23.23v.74c0,.37.12.43.37.18L14.39,5.6A.23.23,0,0,0,14.39,5.22Z" fill="#fff" /><path d="M14.12,13.66a3.17,3.17,0,0,0-2.75-3.05A4,4,0,0,0,7.25,6.78,4.1,4.1,0,0,0,3.33,9.46,3.78,3.78,0,0,0,0,13.1a3.84,3.84,0,0,0,4,3.69h6.78a.47.47,0,0,0,.17,0A3.21,3.21,0,0,0,14.12,13.66Z" fill="url(#b4a5ed8d-a28d-4d26-9aad-a57e6ad0c0b9)" /></svg>
